images/icons/button-list.svg

<svg width="16" height="14" viewBox="0 0 16 14" fill="none" xmlns="http://www.w3.org/2000/svg"><path d="M2 0H0v2h2V0Z" fill="black"/><path d="M16 0H4v2h12V0Z" fill="black"/><path d="M2 4H0v2h2V4Z" fill="black"/><path d="M16 4H4v2h12V4Z" fill="black"/><path d="M2 8H0v2h2V8Z" fill="black"/><path d="M16 8H4v2h12V8Z" fill="black"/><path d="M2 12H0v2h2v-2Z" fill="black"/><path d="M16 12H4v2h12v-2Z" fill="black"/></svg>

<svg width="16" height="14" viewBox="0 0 16 14" fill="none" xmlns="http://www.w3.org/2000/svg">
<path d="M2 0H0V2H2V0Z" fill="black"/>
<path d="M16 0H4V2H16V0Z" fill="black"/>
<path d="M2 4H0V6H2V4Z" fill="black"/>
<path d="M16 4H4V6H16V4Z" fill="black"/>
<path d="M2 8H0V10H2V8Z" fill="black"/>
<path d="M16 8H4V10H16V8Z" fill="black"/>
<path d="M2 12H0V14H2V12Z" fill="black"/>
<path d="M16 12H4V14H16V12Z" fill="black"/>
</svg>
